packages/components/src/components/icon/underlying/ic-underlying-OTC_DJI.svg

<?xml version="1.0" encoding="UTF-8"?>
<svg width="32px" height="32px" viewBox="0 0 32 32" version="1.1" xmlns="http://www.w3.org/2000/svg" xmlns:xlink="http://www.w3.org/1999/xlink">
    <!-- Generator: Sketch 64 (93537) - https://sketch.com -->
    <title>assets/otc/ic-otcwallstreet</title>
    <desc>Created with Sketch.</desc>
    <g id="assets/otc/ic-otcwallstreet" stroke="none" stroke-width="1" fill="none" fill-rule="evenodd">
        <g id="assets/otc/ic-otc">
            <g id="assets/flags/normal/ic-wallstreet" transform="translate(4.000000, 8.000000)">
                <g id="Group" transform="translate(-0.000000, -0.000000)">
                    <rect id="bg" fill="#4CAF50" fill-rule="nonzero" x="5.00000397e-08" y="0" width="24" height="16" rx="2"></rect>
                    <path d="M5.39697268,6.08984378 L5.92602541,8.86669926 L6.57055667,6.08984378 L7.25268558,6.08984378 L7.89453128,8.87207035 L8.42089848,6.08984378 L9.22387699,6.08984378 L8.35644534,10 L7.54541019,10 L6.90893558,7.38427737 L6.27246097,10 L5.4614258,10 L4.59399416,6.08984378 L5.39697268,6.08984378 Z M11.5307617,6.08984378 L12.9943849,10 L12.1376954,10 L11.8664551,9.19433598 L10.4538574,9.19433598 L10.1853027,10 L9.32861332,10 L10.7841797,6.08984378 L11.5307617,6.08984378 Z M14.1652833,6.08984378 L14.1652833,9.35278324 L15.8759767,9.35278324 L15.8759767,10 L13.3596192,10 L13.3596192,6.08984378 L14.1652833,6.08984378 Z M17.1435548,6.08984378 L17.1435548,9.35278324 L18.8542481,9.35278324 L18.8542481,10 L16.3378907,10 L16.3378907,6.08984378 L17.1435548,6.08984378 Z M11.1574707,7.07812503 L10.6713867,8.54174809 L11.6489258,8.54174809 L11.1574707,7.07812503 Z M19.1125489,3.47753907 C19.2902842,3.47753907 19.4486485,3.50972462 19.5876466,3.57409669 C19.7266447,3.63846877 19.8345944,3.72932886 19.9114991,3.84667971 C19.9884038,3.96403055 20.0268556,4.09733 20.0268556,4.24658205 L19.5141603,4.24658205 C19.5141603,4.13264919 19.4782719,4.04406772 19.4064942,3.98083498 C19.3347165,3.91760224 19.2338875,3.88598635 19.104004,3.88598635 C18.9786779,3.88598635 18.8812667,3.91247534 18.8117677,3.96545412 C18.7422686,4.0184329 18.7075196,4.08821573 18.7075196,4.17480471 C18.7075196,4.25569704 18.74825,4.32348607 18.829712,4.37817385 C18.911174,4.43286162 19.0310865,4.48413064 19.1894532,4.53198244 C19.4811214,4.61971075 19.6936029,4.728515 19.8269044,4.85839846 C19.9602058,4.98828192 20.0268556,5.15006416 20.0268556,5.34375002 C20.0268556,5.55908313 19.9453948,5.72798606 19.7824708,5.85046389 C19.6195468,5.97294171 19.4002293,6.03417972 19.1245118,6.03417972 C18.9331046,6.03417972 18.7587899,5.99914588 18.6015626,5.92907717 C18.4443353,5.85900846 18.3244227,5.76302146 18.2418214,5.6411133 C18.1592201,5.51920514 18.11792,5.37793051 18.11792,5.21728518 L18.6323243,5.21728518 C18.6323243,5.49186337 18.7963852,5.62915041 19.1245118,5.62915041 C19.24642,5.62915041 19.3415525,5.60437038 19.4099122,5.55480959 C19.4782719,5.5052488 19.5124513,5.43603562 19.5124513,5.34716799 C19.5124513,5.25032506 19.4782719,5.17598498 19.4099122,5.12414553 C19.3415525,5.07230608 19.2185068,5.01761912 19.0407716,4.96008303 C18.8630363,4.90254693 18.7223313,4.84586618 18.6186524,4.79003908 C18.3360989,4.63736905 18.1948243,4.43172332 18.1948243,4.17309572 C18.1948243,4.03865495 18.2327064,3.91874241 18.3084718,3.81335451 C18.3842371,3.70796662 18.4930414,3.62565136 18.6348878,3.56640626 C18.7767342,3.50716117 18.935953,3.47753907 19.1125489,3.47753907 Z M22.2468263,3.51171876 L22.2468263,3.92700197 L21.4846192,3.92700197 L21.4846192,6.00000002 L20.9719239,6.00000002 L20.9719239,3.92700197 L20.2199708,3.92700197 L20.2199708,3.51171876 L22.2468263,3.51171876 Z" id="wall-st" fill="#FFFFFF" fill-rule="nonzero"></path>
                    <rect id="border" stroke-opacity="0.24" stroke="#FFFFFF" fill-rule="nonzero" x="0.50000005" y="0.5" width="23" height="15" rx="1"></rect>
                </g>
            </g>
        </g>
    </g>
</svg>

<svg xmlns="http://www.w3.org/2000/svg" xmlns:xlink="http://www.w3.org/1999/xlink" width="32" height="32"><defs><rect id="a" width="24" height="16" rx="2"/></defs><g fill="none" fill-rule="evenodd"><g transform="translate(4 8)"><mask id="b" fill="#fff"><use xlink:href="#a"/></mask><g mask="url(#b)"><path fill="#4CAF50" d="M2 0h20a2 2 0 012 2v12a2 2 0 01-2 2H2a2 2 0 01-2-2V2a2 2 0 012-2z"/><path fill="#FFF" d="M7.895 8.872L8.42 6.09h.803L8.356 10h-.81l-.637-2.616L6.272 10h-.81l-.868-3.91h.803l.529 2.777.645-2.777h.682l.642 2.782zm3.971.322h-1.412l-.269.806H9.33l1.455-3.91h.747L12.994 10h-.856l-.272-.806zm-1.195-.652h.978l-.492-1.464-.486 1.464zm3.494.81h1.711V10H13.36V6.09h.805v3.263zm2.979 0h1.71V10h-2.516V6.09h.806v3.263zm2.368-4.005a.263.263 0 00-.102-.223 1.345 1.345 0 00-.37-.164 2.617 2.617 0 01-.421-.17c-.283-.153-.424-.358-.424-.617a.6.6 0 01.113-.36.741.741 0 01.327-.247c.142-.059.301-.088.478-.088s.336.032.475.096a.756.756 0 01.323.273.71.71 0 01.116.4h-.513a.336.336 0 00-.108-.266.443.443 0 00-.302-.095.473.473 0 00-.292.08.25.25 0 00-.104.209c0 .08.04.148.122.203.081.055.201.106.36.154.291.088.504.197.637.326.133.13.2.292.2.486a.599.599 0 01-.245.506c-.162.123-.382.184-.657.184a1.27 1.27 0 01-.523-.105.828.828 0 01-.36-.288.737.737 0 01-.124-.424h.514c0 .275.164.412.493.412a.479.479 0 00.285-.074.242.242 0 00.102-.208zm2.735-1.42h-.762V6h-.513V3.927h-.752v-.415h2.027v.415z"/><path fill="#FFF" fill-opacity=".402" fill-rule="nonzero" d="M2 1a1 1 0 00-1 1v12a1 1 0 001 1h20a1 1 0 001-1V2a1 1 0 00-1-1H2zm0-1h20a2 2 0 012 2v12a2 2 0 01-2 2H2a2 2 0 01-2-2V2a2 2 0 012-2z"/></g><rect width="23" height="15" x=".5" y=".5" stroke="#000" stroke-opacity=".04" mask="url(#b)" rx="2"/></g><path fill="#494C5A" fill-opacity=".4" fill-rule="nonzero" d="M21 2h9a2 2 0 012 2v5a2 2 0 01-2 2h-9a2 2 0 01-2-2V4a2 2 0 012-2z"/><path fill="#494C5A" d="M21 3a1 1 0 00-1 1v5a1 1 0 001 1h9a1 1 0 001-1V4a1 1 0 00-1-1h-9z"/><path fill="#FFF" d="M24.063 6.566c0 .288-.052.54-.157.756a1.16 1.16 0 01-.45.502 1.273 1.273 0 01-.67.176c-.25 0-.472-.058-.668-.174a1.171 1.171 0 01-.455-.499 1.67 1.67 0 01-.163-.745v-.144c0-.288.053-.54.16-.76.107-.218.258-.386.453-.503.195-.117.418-.175.669-.175.25 0 .473.058.668.175.195.117.346.285.453.504.107.218.16.47.16.757v.13zm-.628-.132c0-.306-.057-.539-.17-.698a.558.558 0 00-.483-.239.558.558 0 00-.482.236c-.113.157-.17.387-.172.69v.143c0 .298.057.53.17.694a.556.556 0 00.488.247c.208 0 .368-.08.48-.238.111-.158.168-.39.169-.693v-.142zm3.345-.907h-.922V7.96h-.62V5.527h-.91V5.04h2.452v.487zm2.716 1.46c-.024.314-.143.562-.359.742-.215.18-.5.271-.853.271-.385 0-.689-.126-.91-.378-.221-.252-.332-.598-.332-1.038v-.178c0-.281.051-.528.153-.742a1.13 1.13 0 01.437-.493c.19-.114.41-.171.66-.171.348 0 .628.09.84.27.212.181.335.435.368.76h-.62c-.015-.188-.07-.324-.162-.41-.093-.084-.235-.127-.425-.127-.207 0-.362.072-.464.216-.103.144-.156.367-.158.669v.22c0 .316.049.546.147.692.099.146.254.219.466.219.192 0 .335-.043.43-.128.094-.085.148-.216.162-.394h.62z"/></g></svg>
